shared/images/iconfont/kb-iconfont-folder-up-16.svg

<?xml version="1.0" encoding="UTF-8"?>
<svg width="16px" height="16px" viewBox="0 0 16 16" version="1.1" xmlns="http://www.w3.org/2000/svg" xmlns:xlink="http://www.w3.org/1999/xlink">
    <!-- Generator: sketchtool 49.3 (51167) - http://www.bohemiancoding.com/sketch -->
    <title>8706A1E1-20C5-4DF8-8375-AE011CC36D67</title>
    <desc>Created with sketchtool.</desc>
    <defs></defs>
    <g id="Colors,-icons" stroke="none" stroke-width="1" fill="none" fill-rule="evenodd">
        <g id="Icons-2" transform="translate(-338.000000, -339.000000)">
            <g id="kb-iconfont-folder-up-16" transform="translate(338.000000, 339.000000)">
                <g id="kb-iconfont-folder-new">
                    <rect id="icon-area" fill="#FFFFFF" opacity="0" x="0" y="0" width="16" height="16"></rect>
                    <path d="M7.33324667,3 L14.6666533,3 C15.4030251,3.00003682 15.9999632,3.76362822 16,4.5 L16,13.5 C15.9999632,14.2363718 15.4030251,14.9999632 14.6666533,15 L1.33334667,15 C0.596974887,14.9999632 3.68158279e-05,14.2363718 0,13.5 L0,2.33334667 C3.68158279e-05,1.59697489 0.596974887,1.00003682 1.33334667,1 L5.9999,1 L7.33324667,3 Z M8,8.88102429 L9.72035241,10.4061097 C10.0134842,10.66498 10.4877008,10.6645785 10.7802743,10.4052124 C11.0728478,10.1458462 11.073299,9.72545515 10.7812828,9.46559592 L8,7 L5.21871722,9.46559592 C4.92670102,9.72545515 4.92715224,10.1458462 5.21972573,10.4052124 C5.51229922,10.6645785 5.9865158,10.66498 6.27964759,10.4061097 L8,8.88102429 Z" id="Combined-Shape" fill="#000000" fill-rule="nonzero"></path>
                </g>
            </g>
        </g>
    </g>
</svg>

<svg xmlns="http://www.w3.org/2000/svg" width="16" height="16" viewBox="0 0 16 16">
    <path fill="#000" fill-rule="nonzero" d="M7.333 3h7.334C15.403 3 16 3.764 16 4.5v9c0 .736-.597 1.5-1.333 1.5H1.333C.597 15 0 14.236 0 13.5V2.333C0 1.597.597 1 1.333 1H6l1.333 2zM8 8.881l1.72 1.525a.82.82 0 0 0 1.06 0 .613.613 0 0 0 .001-.94L8 7 5.219 9.466a.613.613 0 0 0 0 .94.82.82 0 0 0 1.06 0L8 8.881z"/>
</svg>
